X:25
T:Lads Come Follow Me. JJo8.025
%%VWML:JohnsonVol8-2184-p13-0
F:http://www.vwml.org/record/JohnsonVol8/2184/p13
Z:Transcribed by Simon Furey and Lewis Jones
Z:vmp.Simon Wilson 2013 www.village-music-project.org.uk
Z:Dance added by John Chambers 2017
M:6/8
L:1/8
%Q:3/8=120
K:G
|:\
G3  B2d  | cAc B3  |\
ABc def  | gdB G3 ::\
gfe dcB  | c3  Ace |
agf ed^c | d3  def |\
gfe dcB  | ABG FED |\
EFG AGF  | G3  G,3 :|
W: Cast off one Cu .| up again :| figure
W:down on your own Sides below the 3d
W:Cu. and foot it :||. figure up back again
W:to the top and foot it :||: set across to
W:the 2d Wo. and not turn .| 1st Wo.
W:and 2d Man the same :| Cross over
W:and turn :||. Right hands and Left :||:
W:
T:Now or Never. JJo8.026
B:J.Johnson Choice Collection Vol 8 1758
Z:vmp.Simon Wilson 2013 www.village-music-project.org.uk
Z:Dance added by John Chambers 2017
M:6/8
L:1/8
%Q:3/8=120
K:A
|: e |\
cBA ABc | E3 E2G | ABc dcB | cBA A2B |\
cAc e3 | fga gfe | ^def Be^d | e3- e2 :|
|: e |\
edc def | efg a3 | A3 c2e | dBA G2E |\
edc BcA | Bcd efg | aed cdB | A3- A2 :|
W: Cast off two Cu .| Cross over
W:two Cu. up to the top :|
W:Lead down one Cu. up again
W:and cast off :||. Right hands
W:and Left :||:
W:
